;FLAVOR:Marlin
;TIME:202.986
;Filament used:0.203789m
;Material Diameter:1.75
;Material Density:1.24
;Filament Cost:0.012156
;Filament Weight:0.607809
;Filament Length:0.203789
;Layer height:0.2
;MINX:5.651
;MINY:5.662
;MINZ:0.2
;MAXX:204.749
;MAXY:204.757
;MAXZ:20.401
;OuterWall Time:166.95
;InnerWall Time:4.9055
;Skin Time:19.8996
;Support Time:0
;SkirtBrim Time:0
;Infill Time:0
;Support Infills Time:0
;Combing Time:2.54764
;Retraction Time:8.68357
;PrimeTower Time:0

;
;
;;;;;;;;;;;;;;;;;;;;;;;;;;;;;;;;;;;;;;;;;;;;;;;;;;;;;;;;;;;;;;;;;;;;;;;;;;;;
;Creality Print GCode Generated by CXEngine
;CRSLICE_GIT_HASH:46fd24b
;Creality Print Version : V4.3.8.6986
;CXEngine Release Time:2023-12-09 15:24:47
;Gcode Generated Time:2025-07-03 13:07:32
;----------Machine Config--------------
;Machine Name:Ender-3 V3 SE
;Machine Height:250
;Machine Width:220
;Machine Depth:220
;Material Type:PLA
;Material Name:Hyper PLA_1.75
;Number of Extruders:1
;ExtruderParams[0] Nozzle Diameter:1000
;----------Profile Config---------------
;Wall Thickness:0.8
;Top/Bottom Thickness:0.8
;Out Wall Line Width:0.42
;Inner Wall Line Width:0.45
;Inital Height:200
;Wall Line Count:2
;Infill Line Distance:4.5
;Infill Pattern:grid
;Infill Sparse Density:20
;Infill Wipe Distance:0
;Print Temperature:190
;Bed Temperature:60
;Support Enable:true
;Support Density:15
;Support Angle:60
;Adhesion Type:autobrim
;machine is belt:false
;machine belt offset:10
;machine belt offset Y:0
;Raft Base Line Spacing:1.6
;Wait Heatup Sync:true
;Enable Ironing:false
;Material Type:PLA
;Max volumetric speed:23
;Preview Img Type:png
;Screen Size:Sermoon D3
;----------Shell Config----------------
;Outer Wall Wipe Distance:2000
;Outer Inset First:false
;Infill Before Walls:false
;Infill Overlap:0.14
;Fill Gaps Between Walls:everywhere
;Minimum Infill Area:30
;Top Surface Skin Layer:0
;Top Layers:4
;Z Seam Alignment:sharpest_corner
;Seam Corner Preference:z_seam_corner_inner
;Z Seam X:110
;Z Seam Y:220
;Horizontal Expansion:0
;Top/Bottom Pattern:zigzag
;Ironing Pattern:zigzag
;Vase Model:false
;----------Support Config----------------
;Support Type:everywhere
;Support Pattern:zigzag
;Support Infill Layer Thickness:0.2
;Minimum Support Area:1
;Enable Support Roof:true
;Support Roof Thickness:0.8
;Support Roof Pattern:lines
;Connect Support Lines:0
;Connect Support ZigZags:1
;Minimum Support X/Y Distance:0.2
;Support Line Distance:2.67
; ---------PrintSpeed & Travel----------
;Enable Print Cool:true
;Avoid Printed Parts Traveling:true
;Enable Retraction:true
;Retraction Distance:1
;Retraction Speed:40
;Retraction Prime Speed:40
;Maximum Retraction Count:100
;Minimum Extrusion Distance Window:1
;Z Hop When Retracted:true
;Z Hop Height:0.4
;Retract Before Outer Wall:true

;Outer Wall Speed:125
;Inner Wall Speed:150
;Infill Speed:250
;Top/Bottom Speed:100
;Travel Speed:200
;Initial Layer Speed:30
;Skirt/Brim Speed:30
;Prime Tower Speed:250
;Outer Wall Acceleration:1000
;Inner Wall Acceleration:2000
;Infill Acceleration:2500
;Top/Bottom Acceleration:2500
;Travel Acceleration:2500
;Initial Layer Print Acceleration:500
;Initial Layer Travel Acceleration:500
;Skirt/Brim Acceleration:500
;Combing Mode:off
; --------SpecialModel&Mesh Fixes--------
;Union Overlapping Volum:true
;Remove All Holes:false
;Maximum Travel Resolution:0.2
;Maximum Deviation:0.05
;Maximum Model Angle:0.872665
;IS Mold Print:false
;Make Overhang Printable:false
;Enable Coasting:false
;Coasting Volumes:0.064
;Coasting Speed:0.9
;Raft AirGap:0.25
;Layer0 ZOverLap:0.13
;Adaptive Layers:0
;---------------------End of Head--------------------------
M140 S60
M105
M190 S60
M104 S190
M82 ;absolute extrusion mode
M220 S100 ;Reset Feedrate
M221 S100 ;Reset Flowrate

G28 ;Home

G92 E0 ;Reset Extruder
G1 Z2.0 F3000 ;Move Z Axis up
G1 X-2.1 Y20 Z0.28 F5000.0 ;Move to start position
M109 S190.000000
G1 X-2.1 Y145.0 Z0.28 F1500.0 E15 ;Draw the first line
G1 X-2.4 Y145.0 Z0.28 F5000.0 ;Move to side a little
G1 X-2.4 Y20 Z0.28 F1500.0 E30 ;Draw the second line
G92 E0  ;Reset Extruder
G1 E-1.0000 F1800 ;Retract a bit
G1 Z2.0 F3000 ;Move Z Axis up
G1 E0.0000 F1800 

G92 E0
G92 E0
G1 F2400 E-1
;LAYER_COUNT:1

;LAYER:0
M106 S0
M204 S500
;;retract;;
G1 F2400 E0
G1 F2400 E-1
G0 F12000 X5.651 Y5.662 Z20.401
;MESH:0_0
G0 X15.753 Y15.785 Z0.6
;TYPE:WALL-OUTER
G1 F600 Z0.2
G1 F2400 E0
G1 F1487.7 X15.753 Y25.337 E0.42179
G1 F1490.3 X15.753 Y34.889 E0.84282
G1 F1493 X15.753 Y44.441 E1.2631
G1 F1495.7 X15.753 Y53.993 E1.68262
G1 F1498.4 X15.753 Y63.545 E2.10139
G1 F1503.8 X15.753 Y73.097 E2.51865
G1 F1506.5 X15.753 Y82.649 E2.93516
G1 F1509.3 X15.753 Y92.201 E3.35091
G1 F1512 X15.753 Y101.753 E3.76591
G1 F1514.8 X15.753 Y111.305 E4.18015
G1 F1517.5 X15.753 Y120.857 E4.59364
G1 F1520.3 X15.753 Y130.409 E5.00637
G1 F1523.1 X15.753 Y139.961 E5.41835
G1 F1525.9 X15.753 Y149.513 E5.82957
G1 F1531.5 X15.753 Y159.065 E6.23929
G1 F1534.3 X15.753 Y168.617 E6.64825
G1 F1537.2 X15.753 Y178.169 E7.05645
G1 F1540 X15.753 Y187.721 E7.4639
G1 F1621.1 X16.004 Y187.78 E7.47435
G1 F1711.1 X73.808 Y187.78 E9.69348
G1 F1707.6 X131.612 Y187.779 E11.91717
G1 F1704.1 X189.416 Y187.779 E14.14543
G1 F1614.8 X189.624 Y187.725 E14.15417
G1 F1537.2 X189.624 Y177.357 E14.59725
G1 F1534.3 X189.624 Y166.989 E15.04114
G1 F1528.7 X189.624 Y156.621 E15.48668
G1 F1525.9 X189.624 Y146.253 E15.93303
G1 F1523.1 X189.624 Y135.885 E16.3802
G1 F1520.3 X189.624 Y125.517 E16.8282
G1 F1514.8 X189.624 Y115.149 E17.27783
G1 F1512 X189.625 Y104.781 E17.72827
G1 F1509.3 X189.625 Y94.413 E18.17954
G1 F1503.8 X189.625 Y84.045 E18.63245
G1 F1501.1 X189.625 Y73.677 E19.08617
G1 F1498.4 X189.625 Y63.309 E19.54072
G1 F1495.7 X189.625 Y52.941 E19.99608
G1 F1490.3 X189.625 Y42.573 E20.45308
G1 F1487.7 X189.626 Y32.205 E20.9109
G1 F1590.1 X189.375 Y32.154 E20.92148
G1 F1707.6 X136.582 Y32.154 E22.9524
G1 F1704.1 X83.789 Y32.154 E24.98749
G1 F1700.6 X30.996 Y32.155 E27.02675
G1 F1584 X30.789 Y32.21 E27.03563
G1 F1487.7 X30.789 Y41.749 E27.45685
G1 F1493 X30.789 Y51.288 E27.87655
G1 F1495.7 X30.789 Y60.827 E28.29551
G1 F1498.4 X30.789 Y70.366 E28.71371
G1 F1503.8 X30.789 Y79.905 E29.1304
G1 F1506.5 X30.789 Y89.444 E29.54634
G1 F1512 X30.789 Y98.983 E29.96077
G1 F1514.8 X30.789 Y108.522 E30.37445
G1 F1520.3 X30.789 Y118.061 E30.78662
G1 F1523.1 X30.789 Y127.6 E31.19804
G1 F1525.9 X30.789 Y137.139 E31.6087
G1 F1531.5 X30.789 Y146.678 E32.01786
G1 F1534.3 X30.789 Y156.217 E32.42626
G1 F1540 X30.789 Y165.756 E32.83316
G1 F1621.1 X31.04 Y165.813 E32.84359
G1 F1711.1 X97.192 Y165.812 E35.3832
G1 F1704.1 X163.344 Y165.811 E37.93326
G1 F1614.8 X163.55 Y165.757 E37.94192
G1 F1537.2 X163.55 Y155.401 E38.38449
G1 F1531.5 X163.55 Y145.045 E38.82869
G1 F1525.9 X163.55 Y134.689 E39.27453
G1 F1520.3 X163.55 Y124.333 E39.722
G1 F1517.5 X163.55 Y113.977 E40.17029
G1 F1512 X163.551 Y103.621 E40.62022
G1 F1506.5 X163.551 Y93.265 E41.07178
G1 F1503.8 X163.551 Y82.909 E41.52416
G1 F1498.4 X163.551 Y72.553 E41.97818
G1 F1493 X163.551 Y62.197 E42.43383
G1 F1487.7 X163.551 Y51.841 E42.89112
G1 F1590.1 X163.301 Y51.785 E42.90171
G1 F1707.6 X107.771 Y51.785 E45.03792
G1 F1700.6 X52.241 Y51.786 E47.1829
G1 F1587 X52.034 Y51.841 E47.19177
G1 F1490.3 X52.034 Y61.597 E47.62179
G1 F1495.7 X52.034 Y71.353 E48.05028
G1 F1501.1 X52.034 Y81.109 E48.47722
G1 F1506.5 X52.034 Y90.865 E48.90262
G1 F1512 X52.034 Y100.621 E49.32648
G1 F1517.5 X52.034 Y110.377 E49.7488
G1 F1523.1 X52.034 Y120.133 E50.16958
G1 F1528.7 X52.034 Y129.889 E50.58881
G1 F1534.3 X52.034 Y139.645 E51.00651
G1 F1540 X52.035 Y149.401 E51.42266
G1 F1621.1 X52.285 Y149.454 E51.43302
G1 F1711.1 X97.916 Y149.453 E53.18481
G1 F1704.1 X143.547 Y149.452 E54.94382
G1 F1617.9 X143.754 Y149.399 E54.95249
G1 F1537.2 X143.754 Y140.184 E55.3463
G1 F1531.5 X143.754 Y130.969 E55.74156
G1 F1523.1 X143.754 Y121.754 E56.139
G1 F1517.5 X143.754 Y112.539 E56.5379
G1 F1509.3 X143.755 Y103.324 E56.93899
G1 F1503.8 X143.755 Y94.109 E57.34152
G1 F1495.7 X143.755 Y84.894 E57.74625
G1 F1490.3 X143.755 Y75.679 E58.15243
G1 F1590.1 X143.505 Y75.623 E58.16301
G1 F1707.6 X109.944 Y75.623 E59.45409
G1 F1700.6 X76.383 Y75.624 E60.75046
G1 F1587 X76.176 Y75.679 E60.75933
G1 F1493 X76.176 Y84.85 E61.16284
G1 F1501.1 X76.176 Y94.021 E61.56418
G1 F1509.3 X76.176 Y103.192 E61.96335
G1 F1520.3 X76.176 Y112.363 E62.35962
G1 F1528.7 X76.176 Y121.534 E62.75372
G1 F1537.2 X76.177 Y130.705 E63.14564
G1 F1624.2 X76.427 Y130.757 E63.15597
G1 F1711.1 X110.23 Y130.756 E64.45369
G1 F1617.9 X110.437 Y130.702 E64.46237
G1 F1569.1 X110.438 Y125.8 E64.6676
G1 F1627.4 X110.439 Y120.898 E64.86547
G1 F1725.3 X110.287 Y120.673 E64.87581
G1 F1800 X109.584 Y120.636 E64.9015
G1 X108.537 Y120.482 E64.94012
G1 X107.517 Y120.227 E64.97849
G1 X106.521 Y119.873 E65.01707
G1 X105.567 Y119.423 E65.05556
G1 X104.663 Y118.885 E65.09395
G1 X103.822 Y118.262 E65.13215
G1 X103.037 Y117.555 E65.1707
G1 X102.33 Y116.778 E65.20904
G1 X101.705 Y115.941 E65.24717
G1 X101.158 Y115.03 E65.28594
G1 X101.014 Y114.775 E65.29663
G1 X100.261 Y113.089 E65.36402
G1 F1819.7 X99.818 Y111.32 E65.42985
G1 F1873 X99.787 Y110.987 E65.44158
G1 F1852.1 X99.773 Y110.583 E65.45592
G1 F1800 X99.702 Y109.501 E65.49549
G1 F1815.7 X99.768 Y108.883 E65.51798
G1 F1911.7 X99.785 Y108.561 E65.52906
G1 F2068.7 X99.831 Y108.013 E65.54652
G1 F1989.5 X99.9 Y107.676 E65.55788
G1 F1827.7 X100.014 Y107.317 E65.57142
G1 F1800 X100.43 Y105.923 E65.62451
G1 X101.252 Y104.286 E65.69136
G1 X102.36 Y102.798 E65.75906
G1 X103.704 Y101.527 E65.82657
G1 X105.261 Y100.491 E65.89482
G1 X106.984 Y99.724 E65.96365
G1 X108.804 Y99.26 E66.0322
G1 X110.69 Y99.102 E66.10127
G1 X112.576 Y99.26 E66.17034
G1 X114.395 Y99.725 E66.23886
G1 X116.12 Y100.491 E66.30774
G1 X117.672 Y101.523 E66.37576
G1 X119.025 Y102.805 E66.44378
G1 X120.126 Y104.28 E66.51095
G1 X120.951 Y105.923 E66.57805
G1 X121.472 Y107.677 E66.64482
G1 X121.531 Y108.195 E66.66385
G1 F1999 X121.627 Y108.631 E66.67852
G1 F2349.2 X121.687 Y109.032 E66.68986
G1 F2460.4 X121.741 Y109.499 E66.70241
G1 F2497.3 X121.686 Y110.378 E66.72558
G1 F2376 X121.635 Y110.846 E66.73859
G1 F1994.2 X121.557 Y111.32 E66.75441
G1 F1796.1 X121.119 Y113.089 E66.82107
G1 F1800 X120.369 Y114.77 E66.88824
G1 X119.338 Y116.294 E66.95539
G1 X119.164 Y116.475 E66.96456
G1 X118.938 Y116.778 E66.97835
G1 X118.231 Y117.555 E67.01669
G1 X117.446 Y118.262 E67.05524
G1 X116.604 Y118.885 E67.09347
G1 X115.7 Y119.423 E67.13186
G1 X114.746 Y119.873 E67.17036
G1 X113.75 Y120.227 E67.20893
G1 X112.729 Y120.482 E67.24734
G1 X111.683 Y120.636 E67.28592
G1 X111.092 Y120.665 E67.30752
G1 F1728.9 X110.942 Y120.892 E67.31785
G1 F1653.3 X110.939 Y130.602 E67.70367
G1 F1534.3 X110.903 Y130.907 E67.71681
G1 F1436.3 X110.903 Y131.197 E67.73008
G1 X110.613 Y131.197 E67.74334
G1 F1560.2 X110.272 Y131.241 E67.75782
G1 F1711.1 X76.427 Y131.243 E69.05715
G1 F1566.1 X76.001 Y131.196 E69.07512
G1 F1438.8 X75.712 Y131.196 E69.08832
G1 X75.712 Y130.907 E69.10151
G1 F1534.3 X75.676 Y130.602 E69.11466
G1 F1646.7 X75.675 Y103.234 E70.20641
G1 F1653.3 X75.674 Y75.866 E71.29383
G1 F1540 X75.712 Y75.472 E71.31072
G1 F1436.3 X75.712 Y75.182 E71.32398
G1 X76.002 Y75.182 E71.33724
G1 F1557.3 X76.342 Y75.138 E71.35171
G1 F1700.6 X109.924 Y75.137 E72.64889
G1 F1707.6 X143.506 Y75.136 E73.94078
G1 F1560.2 X143.929 Y75.183 E73.9587
G1 F1433.8 X144.219 Y75.183 E73.97198
G1 X144.219 Y75.472 E73.98522
G1 F1537.2 X144.258 Y75.866 E74.00214
G1 F1653.3 X144.257 Y112.582 E75.46099
G1 F1646.7 X144.256 Y149.298 E76.92565
G1 F1534.3 X144.22 Y149.604 E76.93884
G1 F1436.3 X144.22 Y149.894 E76.9521
G1 X143.93 Y149.894 E76.96536
G1 F1557.3 X143.589 Y149.938 E76.97987
G1 F1704.1 X97.937 Y149.939 E78.73968
G1 F1711.1 X52.285 Y149.94 E80.49229
G1 F1563.2 X51.859 Y149.894 E80.51029
G1 F1436.3 X51.57 Y149.894 E80.52351
G1 X51.57 Y149.604 E80.53678
G1 F1534.3 X51.534 Y149.298 E80.54997
G1 F1646.7 X51.533 Y100.663 E82.49008
G1 F1653.3 X51.532 Y52.028 E84.42252
G1 F1540 X51.57 Y51.634 E84.4394
G1 F1436.3 X51.57 Y51.344 E84.45267
G1 X51.86 Y51.344 E84.46593
G1 F1557.3 X52.2 Y51.3 E84.48039
G1 F1700.6 X107.751 Y51.299 E86.62619
G1 F1707.6 X163.302 Y51.298 E88.76321
G1 F1560.2 X163.726 Y51.345 E88.78117
G1 F1433.8 X164.016 Y51.345 E88.79445
G1 X164.016 Y51.634 E88.80769
G1 F1537.2 X164.055 Y52.028 E88.82461
G1 F1653.3 X164.055 Y89.904 E90.32956
G1 F1646.7 X164.054 Y127.78 E91.84048
G1 F1643.5 X164.054 Y165.656 E93.3544
G1 F1531.5 X164.016 Y165.962 E93.36763
G1 F1433.8 X164.016 Y166.252 E93.38091
G1 X163.726 Y166.252 E93.3942
G1 F1557.3 X163.385 Y166.297 E93.40871
G1 F1704.1 X97.212 Y166.298 E95.95958
G1 F1711.1 X31.039 Y166.299 E98.49999
G1 F1563.2 X30.614 Y166.252 E98.51796
G1 F1438.8 X30.325 Y166.252 E98.53116
G1 X30.325 Y165.962 E98.5444
G1 F1534.3 X30.288 Y165.657 E98.55755
G1 F1646.7 X30.287 Y99.027 E101.21551
G1 F1653.3 X30.286 Y32.397 E103.86295
G1 F1537.2 X30.325 Y32.003 E103.87987
G1 F1433.8 X30.325 Y31.714 E103.89311
G1 X30.614 Y31.714 E103.90635
G1 F1554.4 X30.955 Y31.669 E103.92089
G1 F1700.6 X83.762 Y31.669 E105.96069
G1 F1704.1 X136.569 Y31.668 E107.99632
G1 F1707.6 X189.376 Y31.667 E110.02778
G1 F1560.2 X189.8 Y31.714 E110.04574
G1 F1433.8 X190.09 Y31.714 E110.05903
G1 X190.09 Y32.003 E110.07227
G1 F1537.2 X190.129 Y32.397 E110.08919
G1 F1653.3 X190.129 Y71.204 E111.63112
G1 F1650 X190.128 Y110.011 E113.17612
G1 F1646.7 X190.128 Y148.818 E114.72418
G1 F1643.5 X190.127 Y187.625 E116.27531
G1 F1531.5 X190.09 Y187.93 E116.28849
G1 F1433.8 X190.09 Y188.22 E116.30178
G1 X189.8 Y188.22 E116.31507
G1 F1557.3 X189.459 Y188.265 E116.32957
G1 F1704.1 X131.641 Y188.265 E118.55837
G1 F1707.6 X73.823 Y188.265 E120.7826
G1 F1711.1 X16.005 Y188.265 E123.00226
G1 F1563.2 X15.579 Y188.22 E123.02027
G1 F1438.8 X15.29 Y188.22 E123.03346
G1 X15.29 Y187.93 E123.0467
G1 F1534.3 X15.253 Y187.624 E123.0599
G1 F1646.7 X15.253 Y144.711 E124.77176
G1 F1650 X15.252 Y101.798 E126.48023
G1 F1653.3 X15.252 Y58.885 E128.1853
G1 F1656.6 X15.251 Y15.972 E129.88699
G1 F1537.2 X15.289 Y15.578 E129.90391
G1 F1433.8 X15.289 Y15.289 E129.91715
G1 X15.578 Y15.289 E129.93039
G1 F1554.4 X15.919 Y15.245 E129.94492
G1 F1700.6 X62.938 Y15.245 E131.76115
G1 F1704.1 X109.957 Y15.245 E133.57366
G1 F1707.6 X156.976 Y15.244 E135.38246
G1 F1711.1 X203.995 Y15.244 E137.18754
G1 F1563.2 X204.421 Y15.289 E137.20554
G1 F1436.3 X204.711 Y15.289 E137.21881
G1 X204.711 Y15.578 E137.23202
G1 F1540 X204.749 Y15.972 E137.24891
G1 F1656.6 X204.749 Y63.008 E139.11409
G1 F1653.3 X204.748 Y110.044 E140.98299
G1 F1650 X204.748 Y157.08 E142.85561
G1 F1646.7 X204.747 Y204.116 E144.73194
G1 F1534.3 X204.711 Y204.421 E144.74509
G1 F1436.3 X204.711 Y204.711 E144.75835
G1 X204.421 Y204.711 E144.77161
G1 F1557.3 X204.08 Y204.755 E144.78612
G1 F1704.1 X141.134 Y204.755 E147.21259
G1 F1707.6 X78.188 Y204.756 E149.63409
G1 F1711.1 X15.242 Y204.757 E152.05062
G1 X15.243 Y204.271 E152.06928
G1 X78.175 Y204.271 E154.48527
G1 F1707.6 X141.107 Y204.27 E156.90623
G1 F1704.1 X204.039 Y204.269 E159.33217
G1 F1617.9 X204.245 Y204.216 E159.3408
G1 F1540 X204.245 Y193.747 E159.78737
G1 F1537.2 X204.245 Y183.278 E160.23477
G1 F1534.3 X204.245 Y172.809 E160.68299
G1 F1531.5 X204.245 Y162.34 E161.13203
G1 F1528.7 X204.245 Y151.871 E161.58191
G1 F1525.9 X204.245 Y141.402 E162.03261
G1 F1523.1 X204.245 Y130.933 E162.48414
G1 F1520.3 X204.245 Y120.464 E162.9365
G1 F1517.5 X204.246 Y109.995 E163.38968
G1 F1512 X204.246 Y99.526 E163.84451
G1 F1509.3 X204.246 Y89.057 E164.30018
G1 F1506.5 X204.246 Y78.588 E164.75667
G1 F1503.8 X204.246 Y68.119 E165.21399
G1 F1501.1 X204.246 Y57.65 E165.67213
